!!!OTL: Zdrowaś słoncem ogarniona
**kern
*staff1
=1-
*clefF4
*k[b-]
2G\
2G\
2G\
=2
1D
2D\
=3
2.G\
4F\
2E\
=4
1D
2C/
=5
2BB-/
1F
=6
2G\
1D
=7
1GG
2r
!!linebreak:original
=8
1G
2G\
=9
2.F\
4G\
2A\
=10
2B-\
1F
=11
1BB-
2C/
=12
2BB-/
1F
=13
2G\
1D
=14
1GG
2r
=15
!!linebreak:original
1G
2G\
=16
1G
2G\
=17
1D
2G\
=18
1F
2BB-/
=19
2C/
1E-
=20
2F\
1C
=21
1F
2r
!!linebreak:original
=22
1F
2F\
=23
1F
2E\
=24
1D
2C/
=25
1BB-
2C/
=26
2BB-/
1F
=27
2G\
1D
=28
0GG
==
*-
!!title: @{OTL}, @{GTL}, ed. @{ENC}
!!!pag:
!!!GTL: Hymnbook D
!!!EFL: 
!!!YEM: Creative Commons CC/BY/NC/SA 4.0
!!!ENC: Marcin Konik
!!!END: 2015-0m-dd
!!!EED: Marcin Konik
!!!EEV: 
!!!ONB: Encoded in vim by Marcin Konik
!!!CharacterEncoding: utf-8
!!!RDF**kern: l=long note in original notation
!!!RDF**kern: i=editorial accidental
!!muse2ps: z14jc180F
!!!COM: Anonim
!!!CDT: [?]
!!!TXO: Polish
!!!ODT: 
!!!GTL: Hymnbook D
!!!ARL: Opactwo św. Wojciecha, Staniątki 
!!!voices:	1
